images/social/ig.svg

<svg width="30" height="30" viewBox="0 0 30 30" fill="none" xmlns="http://www.w3.org/2000/svg">
<circle cx="15" cy="15" r="13" fill="white"/>
<path fill-rule="evenodd" clip-rule="evenodd" d="M0 15C0 6.71606 6.71606 0 15 0C23.2839 0 30 6.71606 30 15C30 23.2839 23.2839 30 15 30C6.71606 30 0 23.2839 0 15ZM19.4707 24.0634C21.9811 24.0634 24.0229 22.0215 24.0229 19.5111V10.5698C24.0229 8.05967 21.9811 6.01751 19.4707 6.01751H10.5293C8.01923 6.01751 5.97707 8.05967 5.97707 10.5698V19.5111C5.97707 22.0215 8.01923 24.0634 10.5293 24.0634H19.4707ZM19.4707 7.98146H10.5293C9.10213 7.98146 7.94101 9.14258 7.94101 10.5698V19.5111C7.94101 20.9383 9.10213 22.0998 10.5293 22.0998H19.4707C20.8979 22.0998 22.0593 20.9386 22.0593 19.5111V10.5698C22.0593 9.14258 20.8982 7.98146 19.4707 7.98146ZM15 19.6883C12.4374 19.6883 10.3525 17.6033 10.3525 15.0404C10.3525 12.4779 12.4374 10.3929 15 10.3929C17.5629 10.3929 19.6478 12.4779 19.6478 15.0404C19.6478 17.603 17.5625 19.6883 15 19.6883ZM19.7972 11.3539C19.1906 11.3539 18.6973 10.8605 18.6973 10.2542C18.6973 9.64794 19.1906 9.15462 19.7972 9.15462C20.4035 9.15462 20.8968 9.64794 20.8968 10.2542C20.8968 10.8605 20.4035 11.3539 19.7972 11.3539ZM15 12.3569C13.5207 12.3569 12.3161 13.5608 12.3161 15.0401C12.3161 16.5201 13.5207 17.7243 15 17.7243C16.48 17.7243 17.6835 16.5201 17.6835 15.0401C17.6835 13.5611 16.4796 12.3569 15 12.3569Z" fill="#3E5ABE"/>
</svg>

<svg width="30" height="30" fill="none" xmlns="http://www.w3.org/2000/svg"><circle cx="15" cy="15" r="13" fill="#fff"/><path fill-rule="evenodd" clip-rule="evenodd" d="M0 15C0 6.716 6.716 0 15 0c8.284 0 15 6.716 15 15 0 8.284-6.716 15-15 15-8.284 0-15-6.716-15-15Zm19.47 9.063a4.557 4.557 0 0 0 4.553-4.552V10.57a4.557 4.557 0 0 0-4.552-4.552h-8.942a4.557 4.557 0 0 0-4.552 4.552v8.941a4.557 4.557 0 0 0 4.552 4.552h8.942Zm0-16.082h-8.94A2.591 2.591 0 0 0 7.94 10.57v8.941a2.592 2.592 0 0 0 2.588 2.589h8.942a2.592 2.592 0 0 0 2.588-2.589V10.57a2.591 2.591 0 0 0-2.588-2.589ZM15 19.688a4.653 4.653 0 0 1-4.648-4.648A4.653 4.653 0 0 1 15 10.393a4.653 4.653 0 0 1 4.648 4.647A4.653 4.653 0 0 1 15 19.688Zm4.797-8.334a1.1 1.1 0 1 1 1.1-1.1c0 .607-.493 1.1-1.1 1.1ZM15 12.357a2.687 2.687 0 0 0-2.684 2.683A2.688 2.688 0 0 0 15 17.724a2.687 2.687 0 0 0 2.683-2.684A2.687 2.687 0 0 0 15 12.357Z" fill="#3E5ABE"/></svg>
